symbols/web/19mp/materialsymbolsrounded/19mp_wght500_40px.svg

<svg xmlns="http://www.w3.org/2000/svg" height="40" width="40"><path d="M15.167 19q.5 0 .812-.312.313-.313.313-.813v-7.208q0-.709-.48-1.188Q15.333 9 14.625 9h-2.083q-.459 0-.771.312-.313.313-.313.771 0 .5.313.813.312.312.812.312h1.459v6.709q0 .458.312.771.313.312.813.312Zm6.125 0h4.416q.625 0 1.146-.521.521-.521.521-1.146v-6.666q0-.625-.521-1.146Q26.333 9 25.708 9h-3.875q-.625 0-1.145.521-.521.521-.521 1.146v2.416q0 .625.521 1.146.52.521 1.145.521h3.334v2H21.25q-.458 0-.771.333-.312.334-.312.792 0 .5.312.813.313.312.813.312Zm1.083-5.75v-2.583h2.792v2.583Zm-14.5 22.042q-1.292 0-2.229-.938-.938-.937-.938-2.229V7.875q0-1.25.938-2.208.937-.959 2.229-.959h24.25q1.25 0 2.208.959.959.958.959 2.208v24.25q0 1.292-.959 2.229-.958.938-2.208.938Zm0-3.167h24.25V7.875H7.875v24.25ZM10.917 31q.5 0 .812-.312.313-.313.313-.771v-6.584h2v4.084q0 .458.312.771.313.312.813.312.5 0 .812-.312.313-.313.313-.813v-4.042H18.5v6.625q0 .417.312.73.313.312.813.312.458 0 .771-.312.312-.313.312-.771v-7.125q0-.625-.52-1.146-.521-.521-1.146-.521h-7.584q-.625 0-1.146.521-.52.521-.52 1.146v7.166q0 .417.312.73.313.312.813.312Zm13.125 0q.5 0 .812-.312.313-.313.313-.771v-1.459H28.5q.625 0 1.146-.5.521-.5.521-1.166v-4q0-.625-.521-1.146-.521-.521-1.146-.521h-3.875q-.708 0-1.187.479-.48.479-.48 1.188v7.166q0 .417.313.73.312.312.771.312Zm1.125-7.667h2.791v2.917h-2.791ZM7.875 7.875v24.25Z"/></svg>

<svg xmlns="http://www.w3.org/2000/svg" height="40" width="40"><path d="M15.167 19Q15.667 19 15.979 18.688Q16.292 18.375 16.292 17.875V10.667Q16.292 9.958 15.812 9.479Q15.333 9 14.625 9H12.542Q12.083 9 11.771 9.312Q11.458 9.625 11.458 10.083Q11.458 10.583 11.771 10.896Q12.083 11.208 12.583 11.208H14.042V17.917Q14.042 18.375 14.354 18.688Q14.667 19 15.167 19ZM21.292 19H25.708Q26.333 19 26.854 18.479Q27.375 17.958 27.375 17.333V10.667Q27.375 10.042 26.854 9.521Q26.333 9 25.708 9H21.833Q21.208 9 20.688 9.521Q20.167 10.042 20.167 10.667V13.083Q20.167 13.708 20.688 14.229Q21.208 14.75 21.833 14.75H25.167V16.75H21.25Q20.792 16.75 20.479 17.083Q20.167 17.417 20.167 17.875Q20.167 18.375 20.479 18.688Q20.792 19 21.292 19ZM22.375 13.25V10.667H25.167V13.25ZM7.875 35.292Q6.583 35.292 5.646 34.354Q4.708 33.417 4.708 32.125V7.875Q4.708 6.625 5.646 5.667Q6.583 4.708 7.875 4.708H32.125Q33.375 4.708 34.333 5.667Q35.292 6.625 35.292 7.875V32.125Q35.292 33.417 34.333 34.354Q33.375 35.292 32.125 35.292ZM7.875 32.125H32.125Q32.125 32.125 32.125 32.125Q32.125 32.125 32.125 32.125V7.875Q32.125 7.875 32.125 7.875Q32.125 7.875 32.125 7.875H7.875Q7.875 7.875 7.875 7.875Q7.875 7.875 7.875 7.875V32.125Q7.875 32.125 7.875 32.125Q7.875 32.125 7.875 32.125ZM10.917 31Q11.417 31 11.729 30.688Q12.042 30.375 12.042 29.917V23.333H14.042V27.417Q14.042 27.875 14.354 28.188Q14.667 28.5 15.167 28.5Q15.667 28.5 15.979 28.188Q16.292 27.875 16.292 27.375V23.333H18.5V29.958Q18.5 30.375 18.812 30.688Q19.125 31 19.625 31Q20.083 31 20.396 30.688Q20.708 30.375 20.708 29.917V22.792Q20.708 22.167 20.188 21.646Q19.667 21.125 19.042 21.125H11.458Q10.833 21.125 10.312 21.646Q9.792 22.167 9.792 22.792V29.958Q9.792 30.375 10.104 30.688Q10.417 31 10.917 31ZM24.042 31Q24.542 31 24.854 30.688Q25.167 30.375 25.167 29.917V28.458H28.5Q29.125 28.458 29.646 27.958Q30.167 27.458 30.167 26.792V22.792Q30.167 22.167 29.646 21.646Q29.125 21.125 28.5 21.125H24.625Q23.917 21.125 23.438 21.604Q22.958 22.083 22.958 22.792V29.958Q22.958 30.375 23.271 30.688Q23.583 31 24.042 31ZM25.167 23.333H27.958V26.25H25.167ZM7.875 7.875Q7.875 7.875 7.875 7.875Q7.875 7.875 7.875 7.875Q7.875 7.875 7.875 7.875Q7.875 7.875 7.875 7.875V32.125Q7.875 32.125 7.875 32.125Q7.875 32.125 7.875 32.125Q7.875 32.125 7.875 32.125Q7.875 32.125 7.875 32.125Z"/></svg>
